svg/truck_fast.svg

<svg xmlns="http://www.w3.org/2000/svg" viewBox="0 0 24 24"><path d="M3 13.5 2.25 12H7.5l-.6-1.5H2L1.25 9h7.8l-.6-1.5H1.11L.25 6H4a2 2 0 0 1 2-2h12v4h3l3 4v5h-2a3 3 0 0 1-3 3 3 3 0 0 1-3-3h-4a3 3 0 0 1-3 3 3 3 0 0 1-3-3H4v-3.5zm16 5a1.5 1.5 0 0 0 1.5-1.5 1.5 1.5 0 0 0-1.5-1.5 1.5 1.5 0 0 0-1.5 1.5 1.5 1.5 0 0 0 1.5 1.5m1.5-9H18V12h4.46zM9 18.5a1.5 1.5 0 0 0 1.5-1.5A1.5 1.5 0 0 0 9 15.5 1.5 1.5 0 0 0 7.5 17 1.5 1.5 0 0 0 9 18.5"/></svg>

<?xml version="1.0" encoding="UTF-8"?><!DOCTYPE svg PUBLIC "-//W3C//DTD SVG 1.1//EN" "http://www.w3.org/Graphics/SVG/1.1/DTD/svg11.dtd"><svg xmlns="http://www.w3.org/2000/svg" xmlns:xlink="http://www.w3.org/1999/xlink" version="1.1" id="mdi-truck-fast" width="24" height="24" viewBox="0 0 24 24"><path d="M3,13.5L2.25,12H7.5L6.9,10.5H2L1.25,9H9.05L8.45,7.5H1.11L0.25,6H4A2,2 0 0,1 6,4H18V8H21L24,12V17H22A3,3 0 0,1 19,20A3,3 0 0,1 16,17H12A3,3 0 0,1 9,20A3,3 0 0,1 6,17H4V13.5H3M19,18.5A1.5,1.5 0 0,0 20.5,17A1.5,1.5 0 0,0 19,15.5A1.5,1.5 0 0,0 17.5,17A1.5,1.5 0 0,0 19,18.5M20.5,9.5H18V12H22.46L20.5,9.5M9,18.5A1.5,1.5 0 0,0 10.5,17A1.5,1.5 0 0,0 9,15.5A1.5,1.5 0 0,0 7.5,17A1.5,1.5 0 0,0 9,18.5Z" /></svg>
